<?xml version="1.0" encoding="UTF-8"?>
<map version="1.10" tiledversion="1.11.2" orientation="orthogonal" renderorder="right-down" width="32" height="32" tilewidth="16" tileheight="16" infinite="0" nextlayerid="4" nextobjectid="1">
 <tileset firstgid="1" name="33003435" tilewidth="16" tileheight="16" tilecount="1024" columns="32">
  <image source="33003435.png" trans="ffffff" width="512" height="512"/>
 </tileset>
 <layer id="1" name="Tile Layer 1" width="32" height="32">
  <properties>
   <property name="Anims1" value="TILEANIM1_Water"/>
   <property name="Anims2" value="0"/>
   <property name="ChapterID" value="CHAPTER_TrialRainyIsland"/>
   <property name="Main" value=""/>
   <property name="MapChangesID" value="MAPCHANGES_TrialRainyIsland"/>
   <property name="MapID" value="MAP_TrialRainyIsland"/>
   <property name="ObjectType" value="OBJ_Frontier"/>
   <property name="PaletteID" value="PAL_Frontier"/>
   <property name="TileConfig" value="CONFIG_Frontier"/>
  </properties>
  <data>
   <tile gid="513"/>
   <tile gid="584"/>
   <tile gid="457"/>
   <tile gid="430"/>
   <tile gid="430"/>
   <tile gid="593"/>
   <tile gid="560"/>
   <tile gid="588"/>
   <tile gid="557"/>
   <tile gid="513"/>
   <tile gid="430"/>
   <tile gid="584"/>
   <tile gid="418"/>
   <tile gid="619"/>
   <tile gid="430"/>
   <tile gid="495"/>
   <tile gid="593"/>
   <tile gid="135"/>
   <tile gid="99"/>
   <tile gid="136"/>
   <tile gid="56"/>
   <tile gid="213"/>
   <tile gid="213"/>
   <tile gid="213"/>
   <tile gid="213"/>
   <tile gid="89"/>
   <tile gid="85"/>
   <tile gid="86"/>
   <tile gid="87"/>
   <tile gid="25"/>
   <tile gid="592"/>
   <tile gid="617"/>
   <tile gid="557"/>
   <tile gid="545"/>
   <tile gid="584"/>
   <tile gid="618"/>
   <tile gid="593"/>
   <tile gid="133"/>
   <tile gid="104"/>
   <tile gid="560"/>
   <tile gid="588"/>
   <tile gid="589"/>
   <tile gid="579"/>
   <tile gid="618"/>
   <tile gid="582"/>
   <tile gid="546"/>
   <tile gid="430"/>
   <tile gid="498"/>
   <tile gid="68"/>
   <tile gid="103"/>
   <tile gid="136"/>
   <tile gid="104"/>
   <tile gid="28"/>
   <tile gid="213"/>
   <tile gid="213"/>
   <tile gid="88"/>
   <tile gid="27"/>
   <tile gid="103"/>
   <tile gid="99"/>
   <tile gid="99"/>
   <tile gid="136"/>
   <tile gid="592"/>
   <tile gid="556"/>
   <tile gid="545"/>
   <tile gid="557"/>
   <tile gid="617"/>
   <tile gid="614"/>
   <tile gid="546"/>
   <tile gid="498"/>
   <tile gid="135"/>
   <tile gid="99"/>
   <tile gid="104"/>
   <tile gid="560"/>
   <tile gid="716"/>
   <tile gid="620"/>
   <tile gid="579"/>
   <tile gid="545"/>
   <tile gid="619"/>
   <tile gid="430"/>
   <tile gid="593"/>
   <tile gid="103"/>
   <tile gid="99"/>
   <tile gid="760"/>
   <tile gid="761"/>
   <tile gid="104"/>
   <tile gid="28"/>
   <tile gid="27"/>
   <tile gid="103"/>
   <tile gid="99"/>
   <tile gid="136"/>
   <tile gid="772"/>
   <tile gid="645"/>
   <tile gid="644"/>
   <tile gid="560"/>
   <tile gid="588"/>
   <tile gid="455"/>
   <tile gid="588"/>
   <tile gid="579"/>
   <tile gid="545"/>
   <tile gid="619"/>
   <tile gid="430"/>
   <tile gid="594"/>
   <tile gid="933"/>
   <tile gid="136"/>
   <tile gid="743"/>
   <tile gid="592"/>
   <tile gid="418"/>
   <tile gid="585"/>
   <tile gid="424"/>
   <tile gid="430"/>
   <tile gid="497"/>
   <tile gid="136"/>
   <tile gid="135"/>
   <tile gid="99"/>
   <tile gid="231"/>
   <tile gid="727"/>
   <tile gid="761"/>
   <tile gid="104"/>
   <tile gid="103"/>
   <tile gid="99"/>
   <tile gid="136"/>
   <tile gid="645"/>
   <tile gid="131"/>
   <tile gid="7"/>
   <tile gid="8"/>
   <tile gid="646"/>
   <tile gid="560"/>
   <tile gid="588"/>
   <tile gid="560"/>
   <tile gid="588"/>
   <tile gid="424"/>
   <tile gid="430"/>
   <tile gid="593"/>
   <tile gid="7"/>
   <tile gid="8"/>
   <tile gid="592"/>
   <tile gid="546"/>
   <tile gid="647"/>
   <tile gid="619"/>
   <tile gid="583"/>
   <tile gid="623"/>
   <tile gid="495"/>
   <tile gid="593"/>
   <tile gid="10"/>
   <tile gid="8"/>
   <tile gid="135"/>
   <tile gid="104"/>
   <tile gid="792"/>
   <tile gid="933"/>
   <tile gid="165"/>
   <tile gid="7"/>
   <tile gid="8"/>
   <tile gid="135"/>
   <tile gid="675"/>
   <tile gid="106"/>
   <tile gid="39"/>
   <tile gid="5"/>
   <tile gid="8"/>
   <tile gid="644"/>
   <tile gid="560"/>
   <tile gid="68"/>
   <tile gid="560"/>
   <tile gid="623"/>
   <tile gid="593"/>
   <tile gid="68"/>
   <tile gid="41"/>
   <tile gid="40"/>
   <tile gid="496"/>
   <tile gid="523"/>
   <tile gid="430"/>
   <tile gid="616"/>
   <tile gid="546"/>
   <tile gid="594"/>
   <tile gid="933"/>
   <tile gid="136"/>
   <tile gid="7"/>
   <tile gid="6"/>
   <tile gid="8"/>
   <tile gid="135"/>
   <tile gid="99"/>
   <tile gid="790"/>
   <tile gid="7"/>
   <tile gid="5"/>
   <tile gid="5"/>
   <tile gid="8"/>
   <tile gid="163"/>
   <tile gid="103"/>
   <tile gid="933"/>
   <tile gid="39"/>
   <tile gid="5"/>
   <tile gid="8"/>
   <tile gid="705"/>
   <tile gid="132"/>
   <tile gid="104"/>
   <tile gid="68"/>
   <tile gid="103"/>
   <tile gid="136"/>
   <tile gid="103"/>
   <tile gid="104"/>
   <tile gid="560"/>
   <tile gid="623"/>
   <tile gid="593"/>
   <tile gid="560"/>
   <tile gid="559"/>
   <tile gid="138"/>
   <tile gid="132"/>
   <tile gid="102"/>
   <tile gid="39"/>
   <tile gid="5"/>
   <tile gid="6"/>
   <tile gid="8"/>
   <tile gid="135"/>
   <tile gid="855"/>
   <tile gid="39"/>
   <tile gid="43"/>
   <tile gid="5"/>
   <tile gid="5"/>
   <tile gid="11"/>
   <tile gid="8"/>
   <tile gid="7"/>
   <tile gid="11"/>
   <tile gid="43"/>
   <tile gid="40"/>
   <tile gid="705"/>
   <tile gid="164"/>
   <tile gid="136"/>
   <tile gid="136"/>
   <tile gid="7"/>
   <tile gid="8"/>
   <tile gid="135"/>
   <tile gid="136"/>
   <tile gid="68"/>
   <tile gid="135"/>
   <tile gid="135"/>
   <tile gid="136"/>
   <tile gid="135"/>
   <tile gid="99"/>
   <tile gid="99"/>
   <tile gid="136"/>
   <tile gid="7"/>
   <tile gid="5"/>
   <tile gid="6"/>
   <tile gid="40"/>
   <tile gid="103"/>
   <tile gid="99"/>
   <tile gid="99"/>
   <tile gid="104"/>
   <tile gid="39"/>
   <tile gid="40"/>
   <tile gid="39"/>
   <tile gid="40"/>
   <tile gid="39"/>
   <tile gid="40"/>
   <tile gid="742"/>
   <tile gid="674"/>
   <tile gid="103"/>
   <tile gid="136"/>
   <tile gid="136"/>
   <tile gid="7"/>
   <tile gid="721"/>
   <tile gid="6"/>
   <tile gid="68"/>
   <tile gid="68"/>
   <tile gid="7"/>
   <tile gid="8"/>
   <tile gid="7"/>
   <tile gid="8"/>
   <tile gid="933"/>
   <tile gid="135"/>
   <tile gid="136"/>
   <tile gid="7"/>
   <tile gid="40"/>
   <tile gid="39"/>
   <tile gid="40"/>
   <tile gid="103"/>
   <tile gid="136"/>
   <tile gid="135"/>
   <tile gid="933"/>
   <tile gid="761"/>
   <tile gid="99"/>
   <tile gid="104"/>
   <tile gid="677"/>
   <tile gid="674"/>
   <tile gid="675"/>
   <tile gid="678"/>
   <tile gid="103"/>
   <tile gid="136"/>
   <tile gid="632"/>
   <tile gid="136"/>
   <tile gid="7"/>
   <tile gid="5"/>
   <tile gid="6"/>
   <tile gid="40"/>
   <tile gid="68"/>
   <tile gid="7"/>
   <tile gid="5"/>
   <tile gid="6"/>
   <tile gid="721"/>
   <tile gid="6"/>
   <tile gid="8"/>
   <tile gid="7"/>
   <tile gid="8"/>
   <tile gid="5"/>
   <tile gid="8"/>
   <tile gid="101"/>
   <tile gid="821"/>
   <tile gid="761"/>
   <tile gid="104"/>
   <tile gid="103"/>
   <tile gid="199"/>
   <tile gid="791"/>
   <tile gid="760"/>
   <tile gid="200"/>
   <tile gid="99"/>
   <tile gid="104"/>
   <tile gid="103"/>
   <tile gid="136"/>
   <tile gid="632"/>
   <tile gid="571"/>
   <tile gid="599"/>
   <tile gid="7"/>
   <tile gid="817"/>
   <tile gid="818"/>
   <tile gid="40"/>
   <tile gid="68"/>
   <tile gid="7"/>
   <tile gid="5"/>
   <tile gid="6"/>
   <tile gid="933"/>
   <tile gid="5"/>
   <tile gid="6"/>
   <tile gid="40"/>
   <tile gid="39"/>
   <tile gid="6"/>
   <tile gid="5"/>
   <tile gid="783"/>
   <tile gid="8"/>
   <tile gid="933"/>
   <tile gid="726"/>
   <tile gid="146"/>
   <tile gid="757"/>
   <tile gid="789"/>
   <tile gid="177"/>
   <tile gid="231"/>
   <tile gid="793"/>
   <tile gid="135"/>
   <tile gid="99"/>
   <tile gid="136"/>
   <tile gid="632"/>
   <tile gid="599"/>
   <tile gid="136"/>
   <tile gid="7"/>
   <tile gid="39"/>
   <tile gid="849"/>
   <tile gid="850"/>
   <tile gid="8"/>
   <tile gid="68"/>
   <tile gid="39"/>
   <tile gid="40"/>
   <tile gid="39"/>
   <tile gid="5"/>
   <tile gid="6"/>
   <tile gid="40"/>
   <tile gid="103"/>
   <tile gid="104"/>
   <tile gid="39"/>
   <tile gid="5"/>
   <tile gid="6"/>
   <tile gid="40"/>
   <tile gid="135"/>
   <tile gid="792"/>
   <tile gid="727"/>
   <tile gid="232"/>
   <tile gid="823"/>
   <tile gid="759"/>
   <tile gid="761"/>
   <tile gid="209"/>
   <tile gid="470"/>
   <tile gid="105"/>
   <tile gid="773"/>
   <tile gid="565"/>
   <tile gid="678"/>
   <tile gid="675"/>
   <tile gid="39"/>
   <tile gid="104"/>
   <tile gid="39"/>
   <tile gid="5"/>
   <tile gid="6"/>
   <tile gid="8"/>
   <tile gid="99"/>
   <tile gid="99"/>
   <tile gid="104"/>
   <tile gid="39"/>
   <tile gid="40"/>
   <tile gid="103"/>
   <tile gid="99"/>
   <tile gid="136"/>
   <tile gid="68"/>
   <tile gid="39"/>
   <tile gid="40"/>
   <tile gid="7"/>
   <tile gid="8"/>
   <tile gid="99"/>
   <tile gid="855"/>
   <tile gid="99"/>
   <tile gid="790"/>
   <tile gid="792"/>
   <tile gid="725"/>
   <tile gid="146"/>
   <tile gid="437"/>
   <tile gid="474"/>
   <tile gid="210"/>
   <tile gid="601"/>
   <tile gid="99"/>
   <tile gid="104"/>
   <tile gid="677"/>
   <tile gid="135"/>
   <tile gid="104"/>
   <tile gid="12"/>
   <tile gid="39"/>
   <tile gid="40"/>
   <tile gid="99"/>
   <tile gid="207"/>
   <tile gid="136"/>
   <tile gid="199"/>
   <tile gid="761"/>
   <tile gid="135"/>
   <tile gid="136"/>
   <tile gid="7"/>
   <tile gid="8"/>
   <tile gid="68"/>
   <tile gid="68"/>
   <tile gid="39"/>
   <tile gid="40"/>
   <tile gid="103"/>
   <tile gid="99"/>
   <tile gid="760"/>
   <tile gid="789"/>
   <tile gid="822"/>
   <tile gid="933"/>
   <tile gid="726"/>
   <tile gid="232"/>
   <tile gid="361"/>
   <tile gid="165"/>
   <tile gid="600"/>
   <tile gid="571"/>
   <tile gid="631"/>
   <tile gid="7"/>
   <tile gid="8"/>
   <tile gid="135"/>
   <tile gid="99"/>
   <tile gid="99"/>
   <tile gid="104"/>
   <tile gid="136"/>
   <tile gid="759"/>
   <tile gid="933"/>
   <tile gid="726"/>
   <tile gid="232"/>
   <tile gid="137"/>
   <tile gid="7"/>
   <tile gid="5"/>
   <tile gid="5"/>
   <tile gid="8"/>
   <tile gid="68"/>
   <tile gid="68"/>
   <tile gid="103"/>
   <tile gid="99"/>
   <tile gid="760"/>
   <tile gid="791"/>
   <tile gid="99"/>
   <tile gid="760"/>
   <tile gid="725"/>
   <tile gid="727"/>
   <tile gid="761"/>
   <tile gid="102"/>
   <tile gid="7"/>
   <tile gid="8"/>
   <tile gid="135"/>
   <tile gid="601"/>
   <tile gid="39"/>
   <tile gid="721"/>
   <tile gid="8"/>
   <tile gid="135"/>
   <tile gid="99"/>
   <tile gid="99"/>
   <tile gid="104"/>
   <tile gid="231"/>
   <tile gid="727"/>
   <tile gid="791"/>
   <tile gid="165"/>
   <tile gid="102"/>
   <tile gid="39"/>
   <tile gid="5"/>
   <tile gid="5"/>
   <tile gid="40"/>
   <tile gid="68"/>
   <tile gid="103"/>
   <tile gid="823"/>
   <tile gid="760"/>
   <tile gid="727"/>
   <tile gid="793"/>
   <tile gid="821"/>
   <tile gid="725"/>
   <tile gid="725"/>
   <tile gid="725"/>
   <tile gid="725"/>
   <tile gid="822"/>
   <tile gid="39"/>
   <tile gid="784"/>
   <tile gid="8"/>
   <tile gid="601"/>
   <tile gid="7"/>
   <tile gid="5"/>
   <tile gid="40"/>
   <tile gid="7"/>
   <tile gid="8"/>
   <tile gid="135"/>
   <tile gid="99"/>
   <tile gid="104"/>
   <tile gid="145"/>
   <tile gid="791"/>
   <tile gid="103"/>
   <tile gid="102"/>
   <tile gid="7"/>
   <tile gid="5"/>
   <tile gid="40"/>
   <tile gid="68"/>
   <tile gid="760"/>
   <tile gid="757"/>
   <tile gid="791"/>
   <tile gid="231"/>
   <tile gid="793"/>
   <tile gid="7"/>
   <tile gid="8"/>
   <tile gid="792"/>
   <tile gid="725"/>
   <tile gid="725"/>
   <tile gid="177"/>
   <tile gid="136"/>
   <tile gid="7"/>
   <tile gid="816"/>
   <tile gid="40"/>
   <tile gid="601"/>
   <tile gid="39"/>
   <tile gid="40"/>
   <tile gid="396"/>
   <tile gid="39"/>
   <tile gid="40"/>
   <tile gid="7"/>
   <tile gid="8"/>
   <tile gid="163"/>
   <tile gid="792"/>
   <tile gid="791"/>
   <tile gid="163"/>
   <tile gid="104"/>
   <tile gid="39"/>
   <tile gid="40"/>
   <tile gid="68"/>
   <tile gid="821"/>
   <tile gid="727"/>
   <tile gid="789"/>
   <tile gid="725"/>
   <tile gid="761"/>
   <tile gid="7"/>
   <tile gid="5"/>
   <tile gid="40"/>
   <tile gid="99"/>
   <tile gid="759"/>
   <tile gid="725"/>
   <tile gid="793"/>
   <tile gid="104"/>
   <tile gid="39"/>
   <tile gid="40"/>
   <tile gid="632"/>
   <tile gid="599"/>
   <tile gid="136"/>
   <tile gid="101"/>
   <tile gid="231"/>
   <tile gid="146"/>
   <tile gid="933"/>
   <tile gid="39"/>
   <tile gid="6"/>
   <tile gid="8"/>
   <tile gid="163"/>
   <tile gid="792"/>
   <tile gid="761"/>
   <tile gid="135"/>
   <tile gid="207"/>
   <tile gid="132"/>
   <tile gid="823"/>
   <tile gid="67"/>
   <tile gid="855"/>
   <tile gid="99"/>
   <tile gid="759"/>
   <tile gid="793"/>
   <tile gid="39"/>
   <tile gid="40"/>
   <tile gid="760"/>
   <tile gid="757"/>
   <tile gid="933"/>
   <tile gid="793"/>
   <tile gid="136"/>
   <tile gid="632"/>
   <tile gid="35"/>
   <tile gid="572"/>
   <tile gid="599"/>
   <tile gid="136"/>
   <tile gid="7"/>
   <tile gid="8"/>
   <tile gid="104"/>
   <tile gid="239"/>
   <tile gid="396"/>
   <tile gid="7"/>
   <tile gid="783"/>
   <tile gid="6"/>
   <tile gid="8"/>
   <tile gid="199"/>
   <tile gid="725"/>
   <tile gid="933"/>
   <tile gid="726"/>
   <tile gid="210"/>
   <tile gid="792"/>
   <tile gid="758"/>
   <tile gid="761"/>
   <tile gid="99"/>
   <tile gid="790"/>
   <tile gid="99"/>
   <tile gid="760"/>
   <tile gid="757"/>
   <tile gid="727"/>
   <tile gid="791"/>
   <tile gid="99"/>
   <tile gid="102"/>
   <tile gid="632"/>
   <tile gid="599"/>
   <tile gid="823"/>
   <tile gid="99"/>
   <tile gid="136"/>
   <tile gid="7"/>
   <tile gid="881"/>
   <tile gid="40"/>
   <tile gid="136"/>
   <tile gid="199"/>
   <tile gid="232"/>
   <tile gid="39"/>
   <tile gid="5"/>
   <tile gid="721"/>
   <tile gid="40"/>
   <tile gid="231"/>
   <tile gid="725"/>
   <tile gid="725"/>
   <tile gid="793"/>
   <tile gid="7"/>
   <tile gid="8"/>
   <tile gid="135"/>
   <tile gid="792"/>
   <tile gid="757"/>
   <tile gid="727"/>
   <tile gid="761"/>
   <tile gid="855"/>
   <tile gid="933"/>
   <tile gid="726"/>
   <tile gid="791"/>
   <tile gid="99"/>
   <tile gid="136"/>
   <tile gid="601"/>
   <tile gid="135"/>
   <tile gid="759"/>
   <tile gid="761"/>
   <tile gid="7"/>
   <tile gid="721"/>
   <tile gid="913"/>
   <tile gid="678"/>
   <tile gid="675"/>
   <tile gid="231"/>
   <tile gid="200"/>
   <tile gid="104"/>
   <tile gid="39"/>
   <tile gid="40"/>
   <tile gid="135"/>
   <tile gid="99"/>
   <tile gid="231"/>
   <tile gid="791"/>
   <tile gid="102"/>
   <tile gid="41"/>
   <tile gid="5"/>
   <tile gid="8"/>
   <tile gid="135"/>
   <tile gid="933"/>
   <tile gid="726"/>
   <tile gid="725"/>
   <tile gid="757"/>
   <tile gid="789"/>
   <tile gid="725"/>
   <tile gid="793"/>
   <tile gid="102"/>
   <tile gid="632"/>
   <tile gid="599"/>
   <tile gid="103"/>
   <tile gid="727"/>
   <tile gid="933"/>
   <tile gid="5"/>
   <tile gid="6"/>
   <tile gid="945"/>
   <tile gid="8"/>
   <tile gid="104"/>
   <tile gid="106"/>
   <tile gid="271"/>
   <tile gid="210"/>
   <tile gid="105"/>
   <tile gid="678"/>
   <tile gid="675"/>
   <tile gid="106"/>
   <tile gid="99"/>
   <tile gid="145"/>
   <tile gid="761"/>
   <tile gid="39"/>
   <tile gid="5"/>
   <tile gid="42"/>
   <tile gid="135"/>
   <tile gid="99"/>
   <tile gid="792"/>
   <tile gid="727"/>
   <tile gid="232"/>
   <tile gid="99"/>
   <tile gid="792"/>
   <tile gid="758"/>
   <tile gid="822"/>
   <tile gid="4"/>
   <tile gid="102"/>
   <tile gid="821"/>
   <tile gid="789"/>
   <tile gid="793"/>
   <tile gid="39"/>
   <tile gid="783"/>
   <tile gid="6"/>
   <tile gid="784"/>
   <tile gid="9"/>
   <tile gid="393"/>
   <tile gid="360"/>
   <tile gid="136"/>
   <tile gid="678"/>
   <tile gid="138"/>
   <tile gid="104"/>
   <tile gid="101"/>
   <tile gid="199"/>
   <tile gid="178"/>
   <tile gid="793"/>
   <tile gid="104"/>
   <tile gid="39"/>
   <tile gid="40"/>
   <tile gid="103"/>
   <tile gid="207"/>
   <tile gid="199"/>
   <tile gid="725"/>
   <tile gid="146"/>
   <tile gid="761"/>
   <tile gid="99"/>
   <tile gid="823"/>
   <tile gid="102"/>
   <tile gid="600"/>
   <tile gid="571"/>
   <tile gid="572"/>
   <tile gid="631"/>
   <tile gid="99"/>
   <tile gid="104"/>
   <tile gid="39"/>
   <tile gid="721"/>
   <tile gid="42"/>
   <tile gid="103"/>
   <tile gid="334"/>
   <tile gid="7"/>
   <tile gid="8"/>
   <tile gid="7"/>
   <tile gid="8"/>
   <tile gid="68"/>
   <tile gid="103"/>
   <tile gid="231"/>
   <tile gid="206"/>
   <tile gid="677"/>
   <tile gid="106"/>
   <tile gid="105"/>
   <tile gid="103"/>
   <tile gid="199"/>
   <tile gid="402"/>
   <tile gid="402"/>
   <tile gid="402"/>
   <tile gid="725"/>
   <tile gid="725"/>
   <tile gid="761"/>
   <tile gid="792"/>
   <tile gid="761"/>
   <tile gid="104"/>
   <tile gid="136"/>
   <tile gid="135"/>
   <tile gid="600"/>
   <tile gid="572"/>
   <tile gid="631"/>
   <tile gid="104"/>
   <tile gid="39"/>
   <tile gid="5"/>
   <tile gid="933"/>
   <tile gid="232"/>
   <tile gid="39"/>
   <tile gid="783"/>
   <tile gid="6"/>
   <tile gid="40"/>
   <tile gid="102"/>
   <tile gid="135"/>
   <tile gid="99"/>
   <tile gid="327"/>
   <tile gid="137"/>
   <tile gid="675"/>
   <tile gid="678"/>
   <tile gid="103"/>
   <tile gid="271"/>
   <tile gid="248"/>
   <tile gid="247"/>
   <tile gid="402"/>
   <tile gid="178"/>
   <tile gid="232"/>
   <tile gid="759"/>
   <tile gid="200"/>
   <tile gid="792"/>
   <tile gid="761"/>
   <tile gid="7"/>
   <tile gid="8"/>
   <tile gid="99"/>
   <tile gid="104"/>
   <tile gid="600"/>
   <tile gid="631"/>
   <tile gid="104"/>
   <tile gid="39"/>
   <tile gid="40"/>
   <tile gid="133"/>
   <tile gid="10"/>
   <tile gid="721"/>
   <tile gid="6"/>
   <tile gid="8"/>
   <tile gid="68"/>
   <tile gid="103"/>
   <tile gid="207"/>
   <tile gid="199"/>
   <tile gid="200"/>
   <tile gid="133"/>
   <tile gid="104"/>
   <tile gid="135"/>
   <tile gid="271"/>
   <tile gid="283"/>
   <tile gid="21"/>
   <tile gid="239"/>
   <tile gid="136"/>
   <tile gid="135"/>
   <tile gid="792"/>
   <tile gid="793"/>
   <tile gid="44"/>
   <tile gid="933"/>
   <tile gid="721"/>
   <tile gid="40"/>
   <tile gid="103"/>
   <tile gid="136"/>
   <tile gid="632"/>
   <tile gid="599"/>
   <tile gid="136"/>
   <tile gid="207"/>
   <tile gid="199"/>
   <tile gid="200"/>
   <tile gid="136"/>
   <tile gid="39"/>
   <tile gid="721"/>
   <tile gid="6"/>
   <tile gid="9"/>
   <tile gid="199"/>
   <tile gid="178"/>
   <tile gid="308"/>
   <tile gid="295"/>
   <tile gid="200"/>
   <tile gid="136"/>
   <tile gid="103"/>
   <tile gid="231"/>
   <tile gid="315"/>
   <tile gid="53"/>
   <tile gid="119"/>
   <tile gid="58"/>
   <tile gid="55"/>
   <tile gid="106"/>
   <tile gid="7"/>
   <tile gid="785"/>
   <tile gid="786"/>
   <tile gid="40"/>
   <tile gid="103"/>
   <tile gid="678"/>
   <tile gid="675"/>
   <tile gid="565"/>
   <tile gid="678"/>
   <tile gid="675"/>
   <tile gid="338"/>
   <tile gid="248"/>
   <tile gid="247"/>
   <tile gid="474"/>
   <tile gid="509"/>
   <tile gid="39"/>
   <tile gid="40"/>
   <tile gid="103"/>
   <tile gid="231"/>
   <tile gid="200"/>
   <tile gid="104"/>
   <tile gid="135"/>
   <tile gid="332"/>
   <tile gid="7"/>
   <tile gid="8"/>
   <tile gid="209"/>
   <tile gid="216"/>
   <tile gid="213"/>
   <tile gid="213"/>
   <tile gid="213"/>
   <tile gid="215"/>
   <tile gid="470"/>
   <tile gid="39"/>
   <tile gid="43"/>
   <tile gid="40"/>
   <tile gid="742"/>
   <tile gid="674"/>
   <tile gid="101"/>
   <tile gid="632"/>
   <tile gid="599"/>
   <tile gid="103"/>
   <tile gid="104"/>
   <tile gid="314"/>
   <tile gid="215"/>
   <tile gid="216"/>
   <tile gid="247"/>
   <tile gid="437"/>
   <tile gid="470"/>
   <tile gid="165"/>
   <tile gid="199"/>
   <tile gid="200"/>
   <tile gid="332"/>
   <tile gid="136"/>
   <tile gid="44"/>
   <tile gid="136"/>
   <tile gid="933"/>
   <tile gid="40"/>
   <tile gid="135"/>
   <tile gid="271"/>
   <tile gid="315"/>
   <tile gid="213"/>
   <tile gid="215"/>
   <tile gid="178"/>
   <tile gid="232"/>
   <tile gid="104"/>
   <tile gid="677"/>
   <tile gid="471"/>
   <tile gid="200"/>
   <tile gid="104"/>
   <tile gid="103"/>
   <tile gid="601"/>
   <tile gid="99"/>
   <tile gid="99"/>
   <tile gid="136"/>
   <tile gid="313"/>
   <tile gid="402"/>
   <tile gid="248"/>
   <tile gid="313"/>
   <tile gid="402"/>
   <tile gid="437"/>
   <tile gid="474"/>
   <tile gid="402"/>
   <tile gid="402"/>
   <tile gid="210"/>
   <tile gid="136"/>
   <tile gid="39"/>
   <tile gid="8"/>
   <tile gid="7"/>
   <tile gid="8"/>
   <tile gid="103"/>
   <tile gid="271"/>
   <tile gid="283"/>
   <tile gid="213"/>
   <tile gid="247"/>
   <tile gid="200"/>
   <tile gid="99"/>
   <tile gid="99"/>
   <tile gid="199"/>
   <tile gid="248"/>
   <tile gid="247"/>
   <tile gid="200"/>
   <tile gid="207"/>
   <tile gid="565"/>
   <tile gid="207"/>
   <tile gid="199"/>
   <tile gid="200"/>
   <tile gid="213"/>
   <tile gid="314"/>
   <tile gid="213"/>
   <tile gid="213"/>
   <tile gid="247"/>
   <tile gid="248"/>
   <tile gid="247"/>
   <tile gid="402"/>
   <tile gid="402"/>
   <tile gid="200"/>
   <tile gid="509"/>
   <tile gid="7"/>
   <tile gid="783"/>
   <tile gid="721"/>
   <tile gid="40"/>
   <tile gid="199"/>
   <tile gid="248"/>
   <tile gid="213"/>
   <tile gid="213"/>
   <tile gid="213"/>
   <tile gid="247"/>
   <tile gid="200"/>
   <tile gid="199"/>
   <tile gid="248"/>
   <tile gid="213"/>
   <tile gid="213"/>
   <tile gid="314"/>
   <tile gid="314"/>
   <tile gid="607"/>
   <tile gid="247"/>
   <tile gid="402"/>
   <tile gid="402"/>
  </data>
 </layer>
</map>
